X: 646
T: Hai tai
%%abc-version 2.0
%%abcx-abcm2ps-target-version 5.9.1 (29 Sep 2008)
%%abc-creator hum2abc beta
%%abcx-conversion-date 2013/10/02 07:52:30
%%abc-edited-by Helmut Schaffrath
%%humdrum-veritas 574984907
%%humdrum-veritas-data 2287055767
%%continueall 1
%%barnumbers 0
L: 1/8
M: 2/4
K: F
d d d A/ c/ [I:setbarnb 1]| 
d4 | 
d f f/ d/ c/ A/ | 
G> AF2 | 
c> A d A | 
G AD2 | 
F F/ G/ A G/ F/ | 
D4 |]  



